X: 1707
T: Sen Bu Yaylaları
C: Cemile Cevher
O: Turkey
F: http://compmusic.upf.edu/node/140
N: nikriz--turku--turkaksagi--sen_bu--trabzon
N: makam= nikriz
N: form= turku
N: usul= turkaksagi = 5/8
M: 5/8
L: 1/16
K: C _7/8B ^3/4f ^c 
Q: 1/4=252
%%MIDI tuningsystem comma53
.A2.A2 A2B2 A2 | G2 z2B2 A2G2  | A2A2 A2B2 A2 | \
w:  ARANAĞME  |   |   | 
G2 z2G2 G2G2  | .A2.A2 A2B2 A2 | 
w:   |  ARANAĞME  | 
G2 z2B2 A2G2  | A2A2 A2B2 A2 | G4GA Bcde  | \
w:   |   |   | 
dcde dede dc | 
w:   | 
B2 A2Bc ABG2  | A2A2 A2B2 A2 | G2 z2G2 G2G2  | \
w:   |   |   | 
fggg g2g2 gg | 
w:   | 
g2 ggg2 g2gg  | g2gg g2g2 z2 | g4g2 g4  | \
w:   |   |  Sen  bu  yay  | 
g4 g2g3^2/4f | ^1/4f2 f2f2 f3e  | 
w:  la la rı   |  yay li ya ma  | 
=f2{g}e2 {f}d4 d2 | d2 d2d2 =f2{g}e2  | \
w:  sun  *  *  *  gü lüm   |  yay li ya ma  | 
d4 .=f.g.e.f .d2 | d2 d2d2 =f2{g}e2  | \
w:  sun   SAZ  |  Yay li ya ma  | 
d4 d4 d2 | 
w:  sun  yav rim   | 
d2 d2d4=f2  | {g}d4 d2=c4 | =c4c=B c4  | \
w:  yay li ya ma  |  *  sun   SAZ  |  De rin *  dur   | 
=c4 c2c3_1/4B | _2/4B2 B2B2 {A}B4  | \
w:  göl le ri   |  boy li ya *  maz  | 
_3/4B4 _7/8BABA B2 | 
w:  sun   SAZ  | 
BA B2B2 B3A  | B2BA B2{c}A2 {B}G2 | A2 A2A2 B3A  | \
w:  Oy_ *  el le run   |  ki na *  li *  *  *  dur   |  oy ni ya maz  | 
G2z2 BcAB G2 | 
w:  sun   SAZ  | 
G2 G2G2 B2{c}A2  | {B}G2z2 BcAB G2 | \
w:  A ğan  var  mi  |  *  dur  SAZ  | 
A2 A2A2 B2{c}A2  | G2z2 GFGF G2 | 
w:  pa şan  var  mi  |  dur   SAZ  | 
G2 G2G2 B2{c}A2  | {B}G2z2 BcAB G2 | \
w:  A ğan  var  mi  |  *  dur  SAZ  | 
A2 A2A2 B2{c}A2  | G4 GABc de | 
w:  pa şan  var  mi  |  dur   SAZ  | 
d2 d2{e}d2 d2{e}c2  | B2A2 B2{c}A2 {B}G2 | \
w:  Se ni  *  ba na   |  men_ et ti *  *  *  ler   | 
A2 A2A2 B2{c}A2  | G2z2 .G.F.G.F .G2 | 
w:  as lı  var  mi  |  dur   SAZ  | 
G2 G2G2 B2{c}A2  | {B}G2z2 BcAB G2 | \
w:  De ma  ne  ne   |  *  ne  SAZ  | 
A2 A2A2 B2{c}A2  | G2z2 GFGF G2 | 
w:  de ma  ne  ne   |  ne   SAZ  | 
G2 G2G2 B2{c}A2  | {B}G2z2 BcAB G2 | \
w:  De ma  ne  ne   |  *  ne  SAZ  | 
A2 A2A2 B2{c}A2  | G4 GABc de | 
w:  de ma  ne  ne   |  ne   SAZ  | 
d2 d2{e}d2 {e}d2{e}c2  | B2A2 B2{c}A2 {B}G2 | \
w:  Der *  *  sen  *  me  |  ne  ne  bi *  *  *  zi   | 
A2 A2A2 B2{c}A2  | G2z2 .G.F.G.F .G2 | 
w:  ko yar  yâ re  |  ne   SAZ  | 
G2 G2G2 B2{c}A2  | {B}G2z2 BcAB G2 | \
w:  Ri  na  ri  nay   |  *  nam  SAZ  | 
A2 A2A2 B2{c}A2  | G2z2 GFGF G2 | 
w:  ni  na  ri  nay   |  nam   SAZ  | 
G2 G2G2 B2{c}A2  | {B}G2z2 BcAB G2 | \
w:  Ri  na  ri  nay   |  *  nam  SAZ  | 
A2 A2A2 B2{c}A2  | G4 GABc de | 
w:  ni  na  ri  nay   |  nam   SAZ  | 
d2 d2{e}d2 {e}d2{e}c2  | B2A2 B2{c}A2 {B}G2 | \
w:  Ri  na  *  ni  *  nay   |  nay  *  nam  *  *  *  ri   | 
A2 A2A2 B2{c}A2  | G2z2 .G.F.G.F .G2 | 
w:  na  ni  nay   |  nam    SAZ  | 
|


